ui/src/assets/images/resources/rb.svg

<?xml version="1.0" encoding="UTF-8" standalone="no"?>
<!-- Created with Inkscape (http://www.inkscape.org/) -->

<svg
   xmlns:dc="http://purl.org/dc/elements/1.1/"
   xmlns:cc="http://creativecommons.org/ns#"
   xmlns:rdf="http://www.w3.org/1999/02/22-rdf-syntax-ns#"
   xmlns:svg="http://www.w3.org/2000/svg"
   xmlns="http://www.w3.org/2000/svg"
   xmlns:sodipodi="http://sodipodi.sourceforge.net/DTD/sodipodi-0.dtd"
   xmlns:inkscape="http://www.inkscape.org/namespaces/inkscape"
   width="18.035334mm"
   height="17.500378mm"
   viewBox="0 0 18.035334 17.500378"
   version="1.1"
   id="svg13826"
   inkscape:version="0.92.4 5da689c313, 2019-01-14"
   sodipodi:docname="rb.svg">
  <defs
     id="defs13820" />
  <sodipodi:namedview
     id="base"
     pagecolor="#ffffff"
     bordercolor="#666666"
     borderopacity="1.0"
     inkscape:pageopacity="0.0"
     inkscape:pageshadow="2"
     inkscape:zoom="11.313708"
     inkscape:cx="14.287308"
     inkscape:cy="20.247642"
     inkscape:document-units="mm"
     inkscape:current-layer="layer1"
     showgrid="false"
     inkscape:window-width="1920"
     inkscape:window-height="1043"
     inkscape:window-x="0"
     inkscape:window-y="0"
     inkscape:window-maximized="1"
     fit-margin-top="0"
     fit-margin-left="0"
     fit-margin-right="0"
     fit-margin-bottom="0" />
  <metadata
     id="metadata13823">
    <rdf:RDF>
      <cc:Work
         rdf:about="">
        <dc:format>image/svg+xml</dc:format>
        <dc:type
           rdf:resource="http://purl.org/dc/dcmitype/StillImage" />
        <dc:title />
      </cc:Work>
    </rdf:RDF>
  </metadata>
  <g
     inkscape:label="Calque 1"
     inkscape:groupmode="layer"
     id="layer1"
     transform="translate(-0.99262638,-1.174181)">
    <g
       id="g3345"
       transform="translate(-0.22511071,0.66897794)">
      <rect
         style="opacity:1;fill:none;fill-opacity:1;fill-rule:nonzero;stroke:#8FA4B1;stroke-width:0.40000001;stroke-linecap:butt;stroke-linejoin:round;stroke-miterlimit:10;stroke-dasharray:0.80000001, 0.4;stroke-dashoffset:4;stroke-opacity:1"
         id="rect8641"
         width="9.9298582"
         height="8.6571665"
         x="5.2704749"
         y="4.9268088" />
      <path
         id="path8433"
         d="m 7.1072364,9.2553918 c 0,-0.6603879 0.5368201,-1.1971921 1.1972005,-1.1971921 l 1.5447712,0 0,-0.7337639 -1.5447712,0 c -1.0658905,0 -1.9309505,0.8650689 -1.9309505,1.930956 0,1.0658872 0.86506,1.9309562 1.9309505,1.9309562 l 1.5447712,0 0,-0.733764 -1.5447712,0 c -0.6603804,0 -1.1972005,-0.5368064 -1.1972005,-1.1971922 z m 1.5834005,0.3861908 3.0895211,0 0,-0.7723818 -3.0895211,0 z m 3.4757211,-2.3171468 -1.54477,0 0,0.7337639 1.54477,0 c 0.66038,0 1.19718,0.5368042 1.19718,1.1971921 0,0.6603858 -0.5368,1.1971922 -1.19718,1.1971922 l -1.54477,0 0,0.733764 1.54477,0 c 1.06589,0 1.93095,-0.865069 1.93095,-1.9309562 0,-1.0658871 -0.86506,-1.930956 -1.93095,-1.930956 z"
         inkscape:connector-curvature="0"
         style="fill:#8FA4B1;fill-opacity:1;stroke-width:0.3861911" />
    </g>
  </g>
</svg>

<?xml version="1.0" encoding="UTF-8" standalone="no"?>
<!-- Created with Inkscape (http://www.inkscape.org/) -->

<svg
   xmlns:dc="http://purl.org/dc/elements/1.1/"
   xmlns:cc="http://creativecommons.org/ns#"
   xmlns:rdf="http://www.w3.org/1999/02/22-rdf-syntax-ns#"
   xmlns:svg="http://www.w3.org/2000/svg"
   xmlns="http://www.w3.org/2000/svg"
   xmlns:sodipodi="http://sodipodi.sourceforge.net/DTD/sodipodi-0.dtd"
   xmlns:inkscape="http://www.inkscape.org/namespaces/inkscape"
   width="10.329858mm"
   height="9.0571661mm"
   viewBox="0 0 10.329858 9.0571663"
   version="1.1"
   id="svg13826"
   inkscape:version="0.92.2 5c3e80d, 2017-08-06"
   sodipodi:docname="rb.svg">
  <defs
     id="defs13820" />
  <sodipodi:namedview
     id="base"
     pagecolor="#ffffff"
     bordercolor="#666666"
     borderopacity="1.0"
     inkscape:pageopacity="0.0"
     inkscape:pageshadow="2"
     inkscape:zoom="11.313708"
     inkscape:cx="-0.27422076"
     inkscape:cy="4.2919681"
     inkscape:document-units="mm"
     inkscape:current-layer="layer1"
     showgrid="false"
     inkscape:window-width="1680"
     inkscape:window-height="912"
     inkscape:window-x="0"
     inkscape:window-y="1"
     inkscape:window-maximized="1"
     fit-margin-top="0"
     fit-margin-left="0"
     fit-margin-right="0"
     fit-margin-bottom="0" />
  <metadata
     id="metadata13823">
    <rdf:RDF>
      <cc:Work
         rdf:about="">
        <dc:format>image/svg+xml</dc:format>
        <dc:type
           rdf:resource="http://purl.org/dc/dcmitype/StillImage" />
        <dc:title />
      </cc:Work>
    </rdf:RDF>
  </metadata>
  <g
     inkscape:label="Calque 1"
     inkscape:groupmode="layer"
     id="layer1"
     transform="translate(-4.8453642,-5.3957868)">
    <g
       id="g3345"
       transform="translate(-0.22511071,0.66897794)">
      <rect
         style="opacity:1;fill:none;fill-opacity:1;fill-rule:nonzero;stroke:#8fa4b1;stroke-width:0.40000001;stroke-linecap:butt;stroke-linejoin:round;stroke-miterlimit:10;stroke-dasharray:0.80000001, 0.4;stroke-dashoffset:4;stroke-opacity:1"
         id="rect8641"
         width="9.9298582"
         height="8.6571665"
         x="5.2704749"
         y="4.9268088" />
      <path
         id="path8433"
         d="m 7.1072364,9.2553918 c 0,-0.6603879 0.5368201,-1.1971921 1.1972005,-1.1971921 H 9.8492081 V 7.3244358 H 8.3044369 c -1.0658905,0 -1.9309505,0.8650689 -1.9309505,1.930956 0,1.0658872 0.86506,1.9309562 1.9309505,1.9309562 H 9.8492081 V 10.452584 H 8.3044369 c -0.6603804,0 -1.1972005,-0.5368064 -1.1972005,-1.1971922 z M 8.6906369,9.6415826 H 11.780158 V 8.8692008 H 8.6906369 Z M 12.166358,7.3244358 h -1.54477 v 0.7337639 h 1.54477 c 0.66038,0 1.19718,0.5368042 1.19718,1.1971921 0,0.6603858 -0.5368,1.1971922 -1.19718,1.1971922 h -1.54477 v 0.733764 h 1.54477 c 1.06589,0 1.93095,-0.865069 1.93095,-1.9309562 0,-1.0658871 -0.86506,-1.930956 -1.93095,-1.930956 z"
         inkscape:connector-curvature="0"
         style="fill:#8fa4b1;fill-opacity:1;stroke-width:0.3861911" />
    </g>
  </g>
</svg>
